X: 1024
T: Alna, The
R: jig
M: 6/8
K: Gmajor
|:GAB DED|GAB dBd|gdd ege|dBG AFD|
GAB DED|GBd gdB|ece dBG|DFA G3:|
|:dBB gBB|gag dcB|cAA fAA|DFA cde|
dBB gBB|gag dcB|ece dBG|DFA G3:|

